X: 3320
T: Belle Aisle
R: reel
M: 4/4
K: Gmajor
|:GA|ABBA G3E|EDEG ABGA|BedB BAGA|BAGE EDGA|
BcBA GE ~E2|EDB,E D2 GA|BedB BAGE|DEGA BA:|
B/c/d|ea ~a2 bagb|agba gedB|GA B/c/d ed B/c/d|gedB AE ~E2|
GABG ~A3B|BAGA Bdef|geag egge|dBGA BA B/c/d|
ea ~a2 bagb|agba gedB|GA B/c/d ezdB|GABG AE ~E2|
GABG ~A3B|BAGA Bdef|geag egge|dBGA BA||

